round/svg/fiber_dvr.svg

<svg xmlns="http://www.w3.org/2000/svg" width="24" height="24"><g fill="currentColor"><path d="M4.5 10.5h2v3h-2zM17.5 10.5h2v1h-2z"/><path d="M21 3H3c-1.11 0-2 .89-2 2v14a2 2 0 0 0 2 2h18a2 2 0 0 0 2-2V5c0-1.11-.89-2-2-2zM8 13.5c0 .83-.67 1.5-1.5 1.5h-3c-.28 0-.5-.22-.5-.5v-5c0-.28.22-.5.5-.5h3c.83 0 1.5.67 1.5 1.5v3zm6.1-3.58l-1.27 4.36c-.12.43-.52.72-.96.72s-.84-.29-.96-.72L9.64 9.92c-.14-.46.21-.92.69-.92.32 0 .6.21.69.52l.85 2.91.85-2.91c.09-.31.37-.52.69-.52.48 0 .83.46.69.92zM21 11.5c0 .6-.4 1.15-.9 1.4l.63 1.48c.19.45-.14.96-.63.96-.28 0-.53-.16-.63-.42L18.65 13H17.5v1.31c0 .38-.31.69-.69.69h-.12c-.38 0-.69-.31-.69-.69V9.64c0-.35.29-.64.64-.64h2.86c.83 0 1.5.67 1.5 1.5v1z"/></g></svg>

<?xml version="1.0" encoding="utf-8"?>
<!-- Generator: Adobe Illustrator 19.1.0, SVG Export Plug-In . SVG Version: 6.00 Build 0)  -->
<svg version="1.1" xmlns="http://www.w3.org/2000/svg" xmlns:xlink="http://www.w3.org/1999/xlink" x="0px" y="0px" width="24px"
	 height="24px" viewBox="0 0 24 24" enable-background="new 0 0 24 24" xml:space="preserve">
<g id="Bounding_Boxes" display="none">
	<path display="inline" fill="none" d="M0,0h24v24H0V0z"/>
</g>
<g id="Rounded" fill="currentColor">
	<g>
		<rect x="4.5" y="10.5" width="2" height="3"/>
		<rect x="17.5" y="10.5" width="2" height="1"/>
		<path d="M21,3H3C1.89,3,1,3.89,1,5v14c0,1.1,0.89,2,2,2h18c1.11,0,2-0.9,2-2V5C23,3.89,22.11,3,21,3z M8,13.5
			C8,14.33,7.33,15,6.5,15h-3C3.22,15,3,14.78,3,14.5v-5C3,9.22,3.22,9,3.5,9h3C7.33,9,8,9.67,8,10.5V13.5z M14.1,9.92l-1.27,4.36
			C12.71,14.71,12.31,15,11.87,15s-0.84-0.29-0.96-0.72L9.64,9.92C9.5,9.46,9.85,9,10.33,9c0.32,0,0.6,0.21,0.69,0.52l0.85,2.91
			l0.85-2.91C12.81,9.21,13.09,9,13.41,9C13.89,9,14.24,9.46,14.1,9.92z M21,11.5c0,0.6-0.4,1.15-0.9,1.4l0.63,1.48
			c0.19,0.45-0.14,0.96-0.63,0.96h0c-0.28,0-0.53-0.16-0.63-0.42L18.65,13H17.5v1.31c0,0.38-0.31,0.69-0.69,0.69h-0.12
			C16.31,15,16,14.69,16,14.31V9.64C16,9.29,16.29,9,16.64,9h2.86c0.83,0,1.5,0.67,1.5,1.5V11.5z"/>
	</g>
</g>
</svg>
